src/assets/Home.svg

<svg width="28" height="26" viewBox="0 0 28 26" fill="none" xmlns="http://www.w3.org/2000/svg">
<path d="M27.5698 10.9023L14.737 0.26594C14.3083 -0.0886058 13.69 -0.0886058 13.2613 0.26594L0.428448 10.9023C-0.0702816 11.3159 -0.146112 12.0605 0.262205 12.5657C0.670522 13.0709 1.40549 13.1478 1.90422 12.7341L3.49957 11.4105V22.4546C3.49957 24.4134 5.06576 26 6.99943 26H20.9989C22.9325 26 24.4987 24.4134 24.4987 22.4546V11.4105L26.0941 12.7341C26.5928 13.1478 27.3278 13.0709 27.7361 12.5657C28.1444 12.0605 28.0686 11.3159 27.5698 10.9023ZM11.6659 23.6364V17.7273C11.6659 17.0743 12.188 16.5455 12.8325 16.5455H15.1658C15.8103 16.5455 16.3324 17.0743 16.3324 17.7273V23.6364H11.6659ZM22.1655 22.4546C22.1655 23.1075 21.6434 23.6364 20.9989 23.6364H18.6656V17.7273C18.6656 15.7684 17.0994 14.1818 15.1658 14.1818H12.8325C10.8989 14.1818 9.33267 15.7684 9.33267 17.7273V23.6364H6.99943C6.35487 23.6364 5.83281 23.1075 5.83281 22.4546V9.47821L13.9991 2.70935L22.1655 9.47821V22.4546Z" fill="#999999"/>
</svg>

<svg xmlns="http://www.w3.org/2000/svg" width="28" height="26" fill="none"><path fill="#999" d="M27.57 10.902 14.737.266a1.16 1.16 0 0 0-1.476 0L.428 10.902a1.193 1.193 0 0 0-.166 1.664 1.157 1.157 0 0 0 1.642.168L3.5 11.411v11.044C3.5 24.413 5.066 26 7 26h13.999c1.934 0 3.5-1.587 3.5-3.545V11.41l1.595 1.323a1.157 1.157 0 0 0 1.642-.168 1.193 1.193 0 0 0-.166-1.664M11.666 23.636v-5.909c0-.653.522-1.181 1.166-1.181h2.334c.644 0 1.166.528 1.166 1.181v5.91zm10.5-1.181c0 .653-.523 1.181-1.167 1.181h-2.333v-5.909c0-1.959-1.567-3.545-3.5-3.545h-2.334c-1.933 0-3.5 1.586-3.5 3.545v5.91H7a1.174 1.174 0 0 1-1.166-1.182V9.478l8.166-6.769 8.167 6.77z"/></svg>
